X: 5
T: Terry Teehan's
C: Terry Teahan
Z: JACKB
S: https://thesession.org/tunes/444#setting47278
R: barndance
M: 4/4
L: 1/8
K: Emin
"Em"B3A B3c|"Bm"dBAF "D"DEFA|"Em"ABBA B3c|"Bm"dBAF "Em"E3A|
"Em"DBBA B3c|"Bm"dBAF "D"DEFA|"Em"DBBD B3c|"Bm"dBAF "Em"E3A||
"Em"Beef g2 fe|"G"d2 (3Bcd "D"ADFA|"Em"Beef g2 fe|"Bm"dBAF "Em"E3A|
"Em"Beef g2 fe|"G"d2 (3Bcd "D"ADFA|"Em"Beed "Bm"BAFA|"Bm"DEFD "Em"EFGA||

%-------------------- TUNE SEPARATOR --------------------%

